Newaita-dark/apps/64/gnumeric.svg

<svg height="64pt" viewBox="0 0 64 64" width="64pt" xmlns="http://www.w3.org/2000/svg" xmlns:xlink="http://www.w3.org/1999/xlink"><linearGradient id="a" gradientUnits="userSpaceOnUse" x1="31.75304" x2="31.75304" y1="56.067872" y2="58.71396000006"><stop offset="0" stop-opacity=".27451"/><stop offset="1" stop-opacity="0"/></linearGradient><linearGradient id="b"><stop offset="0" stop-opacity=".313726"/><stop offset=".222222" stop-opacity=".27451"/><stop offset="1" stop-opacity="0"/></linearGradient><radialGradient id="c" cx="450.908936" cy="189.579361" gradientTransform="matrix(.00000035 -.156265 -.281277 -.0000002 97.64609 127.190665)" gradientUnits="userSpaceOnUse" r="21.166656" xlink:href="#b"/><radialGradient id="d" cx="450.908936" cy="189.579361" gradientTransform="matrix(-.00000035 .156265 .281277 .0000002 -35.463065 -15.054958)" gradientUnits="userSpaceOnUse" r="21.166656" xlink:href="#b"/><radialGradient id="e" cx="450.908936" cy="189.579361" gradientTransform="matrix(-.00000035 -.156265 .281277 -.0000002 -35.463065 127.190665)" gradientUnits="userSpaceOnUse" r="21.166656" xlink:href="#b"/><radialGradient id="f" cx="450.908936" cy="189.579361" gradientTransform="matrix(.00000035 .156265 -.281277 .0000002 97.646086 -15.054959)" gradientUnits="userSpaceOnUse" r="21.166656" xlink:href="#b"/><linearGradient id="g" gradientUnits="userSpaceOnUse" x1="31.091534" x2="31.091534" y1="56.06789790428" y2="5.79222438278"><stop offset="0" stop-color="#eee"/><stop offset="1" stop-color="#f5f5f5"/></linearGradient><linearGradient id="h"><stop offset="0" stop-color="#ef5350"/><stop offset="1" stop-color="#e57373"/></linearGradient><linearGradient id="i" gradientUnits="userSpaceOnUse" x1="31.091534" x2="31.091534" xlink:href="#h" y1="56.06789790428" y2="5.79222438278"/><linearGradient id="j" gradientUnits="userSpaceOnUse" x1="41.675879" x2="41.675879" xlink:href="#h" y1="56.06791590428" y2="36.22225388664"/><linearGradient id="k" gradientUnits="userSpaceOnUse" x1="48.95261100013" x2="48.95261100013" y1="56.06786100013" y2="33.57611750002"><stop offset="0" stop-color="#66bb6a"/><stop offset="1" stop-color="#81c784"/></linearGradient><path d="m17.199219 56.066406h27.785156v2.648438h-27.785156zm0 0" fill="url(#a)"/><path d="m44.984375 56.066406h5.292969v-2.644531h-5.292969zm0 0" fill="url(#c)"/><path d="m17.199219 56.066406h-5.292969v2.648438h5.292969zm0 0" fill="url(#d)"/><path d="m17.199219 56.066406h-5.292969v-2.644531h5.292969zm0 0" fill="url(#e)"/><path d="m44.984375 56.066406h5.292969v2.648438h-5.292969zm0 0" fill="url(#f)"/><path d="m14.554688 5.792969c-1.46875 0-2.648438 1.179687-2.648438 2.644531v44.984375c0 1.464844 1.179688 2.644531 2.648438 2.644531h33.074218c1.464844 0 2.648438-1.179687 2.648438-2.644531v-35.722656l-11.910156-11.90625zm26.460937 0 9.261719 9.261719v-6.617188c0-1.464844-1.183594-2.644531-2.648438-2.644531zm0 0" fill="url(#g)"/><path d="m21.167969 15.054688c-1.464844 0-2.644531 1.179687-2.644531 2.644531v26.460937c0 1.464844 1.179687 2.644532 2.644531 2.644532h19.847656c1.464844 0 2.644531-1.179688 2.644531-2.644532v-26.460937c0-1.464844-1.179687-2.644531-2.644531-2.644531zm.664062 1.984374h2.644531v3.304688h-3.96875v-1.984375c0-.730469.589844-1.320313 1.324219-1.320313zm4.628907 0h3.636718v3.304688h-3.636718zm5.621093 0h3.640625v3.304688h-3.640625zm5.625 0h2.644531c.734376 0 1.324219.589844 1.324219 1.320313v1.984375h-3.96875zm-17.199219 5.292969h3.96875v2.644531h-3.96875zm5.953126 0h3.636718v2.644531h-3.636718zm5.621093 0h3.640625v2.644531h-3.640625zm5.625 0h3.96875v2.644531h-3.96875zm-17.199219 4.628907h3.96875v2.976562h-3.96875zm5.953126 0h3.636718v2.976562h-3.636718zm5.621093 0h3.640625v2.976562h-3.640625zm5.625 0h3.96875v2.976562h-3.96875zm-17.199219 4.960937h3.96875v2.648437h-3.96875zm5.953126 0h3.636718v2.648437h-3.636718zm5.621093 0h3.640625v2.648437h-3.640625zm5.625 0h3.96875v2.648437h-3.96875zm-17.199219 4.632813h3.96875v2.976562h-3.96875zm5.953126 0h3.636718v2.976562h-3.636718zm5.621093 0h3.640625v2.976562h-3.640625zm5.625 0h3.96875v2.976562h-3.96875zm-17.199219 4.960937h3.96875v3.304687h-2.644531c-.734375 0-1.324219-.589843-1.324219-1.320312zm5.953126 0h3.636718v3.304687h-3.636718zm5.621093 0h3.640625v3.304687h-3.640625zm5.625 0h3.96875v1.984375c0 .730469-.589843 1.320312-1.324219 1.320312h-2.644531zm0 0" fill-opacity=".235294"/><path d="m41.015625 5.792969 9.261719 9.261719v-6.617188c0-1.464844-1.183594-2.644531-2.648438-2.644531zm0 0" fill="url(#i)"/><path d="m14.554688 5.792969c-1.46875 0-2.648438 1.179687-2.648438 2.644531v.664062c0-1.46875 1.179688-2.648437 2.648438-2.648437h23.8125l11.910156 11.90625v-.660156l-11.910156-11.90625zm26.460937 0 .660156.660156h5.953125c1.464844 0 2.648438 1.179687 2.648438 2.648437v-.664062c0-1.464844-1.183594-2.644531-2.648438-2.644531zm0 0" fill="#fff" fill-opacity=".392157"/><path d="m41.015625 5.792969 9.261719 9.261719v-.984376l-8.28125-8.277343zm-29.109375 46.648437v.980469c0 1.464844 1.179688 2.644531 2.648438 2.644531h33.074218c1.464844 0 2.648438-1.179687 2.648438-2.644531v-.980469c0 1.464844-1.183594 2.644532-2.648438 2.644532h-33.074218c-1.46875 0-2.648438-1.179688-2.648438-2.644532zm0 0" fill-opacity=".235294"/><path d="m14.554688 5.605469c-1.566407 0-2.835938 1.265625-2.835938 2.832031v44.984375c0 1.566406 1.269531 2.832031 2.835938 2.832031h33.074218c1.566406 0 2.835938-1.265625 2.835938-2.832031v-35.722656c0-.050781-.019532-.097657-.054688-.132813l-11.910156-11.90625c-.035156-.035156-.082031-.054687-.132812-.054687zm26.460937 0c-.078125 0-.144531.042969-.175781.113281-.027344.070312-.011719.152344.042968.207031l9.261719 9.261719c.050781.050781.132813.066406.203125.039062.070313-.027343.117188-.097656.117188-.171874v-6.617188c0-1.566406-1.269532-2.832031-2.835938-2.832031zm-26.460937.375h23.734374l11.800782 11.796875v35.644531c0 1.363281-1.09375 2.457031-2.460938 2.457031h-33.074218c-1.367188 0-2.460938-1.09375-2.460938-2.457031v-44.984375c0-1.363281 1.09375-2.457031 2.460938-2.457031zm26.914062 0h6.160156c1.367188 0 2.460938 1.09375 2.460938 2.457031v6.164062zm0 0" fill="#212121"/><path d="m41.675781 36.222656c-5.496093 0-9.921875 4.425782-9.921875 9.921875 0 5.496094 4.425782 9.921875 9.921875 9.921875 5.496094 0 9.921875-4.425781 9.921875-9.921875h-9.921875zm0 0" fill="url(#j)"/><path d="m44.320312 33.574219v9.925781h9.925782c0-5.5-4.425782-9.925781-9.925782-9.925781zm0 0" fill="url(#k)"/><path d="m41.675781 36.222656c-5.496093 0-9.921875 4.425782-9.921875 9.921875 0 .109375 0 .21875.003906.328125.175782-5.339844 4.53125-9.589844 9.917969-9.589844zm0 9.921875v.660157h9.902344c.011719-.21875.019531-.4375.019531-.660157zm0 0" fill="#fff" fill-opacity=".392157"/><path d="m44.320312 33.574219v.664062c5.277344 0 9.5625 4.074219 9.902344 9.261719h.023438c0-5.5-4.425782-9.925781-9.925782-9.925781zm0 0" fill="#fff" fill-opacity=".392157"/><path d="m31.757812 45.835938c-.003906.101562-.003906.207031-.003906.308593 0 5.496094 4.425782 9.921875 9.921875 9.921875 5.496094 0 9.921875-4.425781 9.921875-9.921875h-.019531c-.320313 5.203125-4.613281 9.296875-9.902344 9.296875-5.390625 0-9.753906-4.257812-9.917969-9.605468zm0 0" fill-opacity=".235294"/><path d="m44.320312 42.835938v.664062h9.925782c0-.222656-.007813-.445312-.023438-.664062zm0 0" fill-opacity=".235294"/><g fill="none" stroke="#212121" stroke-linecap="round" stroke-linejoin="round" stroke-width="3" transform="matrix(.125012 0 0 .125012 0 26.877566)"><path d="m333.374414 74.75358c-43.964551 0-79.36742 35.402869-79.36742 79.367421 0 43.964551 35.402869 79.36742 79.36742 79.36742 43.964552 0 79.367421-35.402869 79.367421-79.36742h-79.367421zm0 0"/><path d="m354.528644 53.568103v79.398668h79.398668c0-43.995799-35.402869-79.398668-79.398668-79.398668zm0 0"/></g></svg>

<?xml version="1.0" encoding="UTF-8"?>
<svg xmlns="http://www.w3.org/2000/svg" xmlns:xlink="http://www.w3.org/1999/xlink" width="64pt" height="64pt" viewBox="0 0 64 64" version="1.1">
<defs>
<linearGradient id="linear0" gradientUnits="userSpaceOnUse" x1="254" y1="233.5" x2="254" y2="254.666672" gradientTransform="matrix(0.125012,0,0,0.125012,-0.00000763012,26.87757)">
<stop offset="0" style="stop-color:rgb(0%,0%,0%);stop-opacity:0.27451;"/>
<stop offset="1" style="stop-color:rgb(0%,0%,0%);stop-opacity:0;"/>
</linearGradient>
<radialGradient id="radial0" gradientUnits="userSpaceOnUse" cx="450.908936" cy="189.579361" fx="450.908936" fy="189.579361" r="21.166656" gradientTransform="matrix(0.000000348341,-0.156265,-0.281277,-0.000000203077,97.64609,127.190665)">
<stop offset="0" style="stop-color:rgb(0%,0%,0%);stop-opacity:0.313726;"/>
<stop offset="0.222222" style="stop-color:rgb(0%,0%,0%);stop-opacity:0.27451;"/>
<stop offset="1" style="stop-color:rgb(0%,0%,0%);stop-opacity:0;"/>
</radialGradient>
<radialGradient id="radial1" gradientUnits="userSpaceOnUse" cx="450.908936" cy="189.579361" fx="450.908936" fy="189.579361" r="21.166656" gradientTransform="matrix(-0.000000348341,0.156265,0.281277,0.000000203077,-35.463065,-15.054958)">
<stop offset="0" style="stop-color:rgb(0%,0%,0%);stop-opacity:0.313726;"/>
<stop offset="0.222222" style="stop-color:rgb(0%,0%,0%);stop-opacity:0.27451;"/>
<stop offset="1" style="stop-color:rgb(0%,0%,0%);stop-opacity:0;"/>
</radialGradient>
<radialGradient id="radial2" gradientUnits="userSpaceOnUse" cx="450.908936" cy="189.579361" fx="450.908936" fy="189.579361" r="21.166656" gradientTransform="matrix(-0.000000348341,-0.156265,0.281277,-0.000000203077,-35.463065,127.190665)">
<stop offset="0" style="stop-color:rgb(0%,0%,0%);stop-opacity:0.313726;"/>
<stop offset="0.222222" style="stop-color:rgb(0%,0%,0%);stop-opacity:0.27451;"/>
<stop offset="1" style="stop-color:rgb(0%,0%,0%);stop-opacity:0;"/>
</radialGradient>
<radialGradient id="radial3" gradientUnits="userSpaceOnUse" cx="450.908936" cy="189.579361" fx="450.908936" fy="189.579361" r="21.166656" gradientTransform="matrix(0.000000348341,0.156265,-0.281277,0.000000203077,97.646086,-15.054959)">
<stop offset="0" style="stop-color:rgb(0%,0%,0%);stop-opacity:0.313726;"/>
<stop offset="0.222222" style="stop-color:rgb(0%,0%,0%);stop-opacity:0.27451;"/>
<stop offset="1" style="stop-color:rgb(0%,0%,0%);stop-opacity:0;"/>
</radialGradient>
<linearGradient id="linear1" gradientUnits="userSpaceOnUse" x1="940" y1="1695.118164" x2="940" y2="175.118118" gradientTransform="matrix(0.0330761,0,0,0.0330761,0,0)">
<stop offset="0" style="stop-color:rgb(93.333334%,93.333334%,93.333334%);stop-opacity:1;"/>
<stop offset="1" style="stop-color:rgb(96.078432%,96.078432%,96.078432%);stop-opacity:1;"/>
</linearGradient>
<linearGradient id="linear2" gradientUnits="userSpaceOnUse" x1="940" y1="1695.118164" x2="940" y2="175.118118" gradientTransform="matrix(0.0330761,0,0,0.0330761,0,0)">
<stop offset="0" style="stop-color:rgb(93.725491%,32.549021%,31.37255%);stop-opacity:1;"/>
<stop offset="1" style="stop-color:rgb(89.803922%,45.09804%,45.09804%);stop-opacity:1;"/>
</linearGradient>
<linearGradient id="linear3" gradientUnits="userSpaceOnUse" x1="940" y1="1215.118164" x2="940" y2="615.118103" gradientTransform="matrix(0.0330761,0,0,0.0330761,10.584345,15.876546)">
<stop offset="0" style="stop-color:rgb(93.725491%,32.549021%,31.37255%);stop-opacity:1;"/>
<stop offset="1" style="stop-color:rgb(89.803922%,45.09804%,45.09804%);stop-opacity:1;"/>
</linearGradient>
<linearGradient id="linear4" gradientUnits="userSpaceOnUse" x1="296.333344" y1="117.083344" x2="296.333344" y2="-62.833332" gradientTransform="matrix(0.125012,0,0,0.125012,11.907387,41.431038)">
<stop offset="0" style="stop-color:rgb(40.000001%,73.333335%,41.568628%);stop-opacity:1;"/>
<stop offset="1" style="stop-color:rgb(50.588238%,78.039217%,51.764709%);stop-opacity:1;"/>
</linearGradient>
</defs>
<g id="surface1">
<path style=" stroke:none;fill-rule:nonzero;fill:url(#linear0);" d="M 17.199219 56.066406 L 44.984375 56.066406 L 44.984375 58.714844 L 17.199219 58.714844 Z M 17.199219 56.066406 "/>
<path style=" stroke:none;fill-rule:nonzero;fill:url(#radial0);" d="M 44.984375 56.066406 L 50.277344 56.066406 L 50.277344 53.421875 L 44.984375 53.421875 Z M 44.984375 56.066406 "/>
<path style=" stroke:none;fill-rule:nonzero;fill:url(#radial1);" d="M 17.199219 56.066406 L 11.90625 56.066406 L 11.90625 58.714844 L 17.199219 58.714844 Z M 17.199219 56.066406 "/>
<path style=" stroke:none;fill-rule:nonzero;fill:url(#radial2);" d="M 17.199219 56.066406 L 11.90625 56.066406 L 11.90625 53.421875 L 17.199219 53.421875 Z M 17.199219 56.066406 "/>
<path style=" stroke:none;fill-rule:nonzero;fill:url(#radial3);" d="M 44.984375 56.066406 L 50.277344 56.066406 L 50.277344 58.714844 L 44.984375 58.714844 Z M 44.984375 56.066406 "/>
<path style=" stroke:none;fill-rule:nonzero;fill:url(#linear1);" d="M 14.554688 5.792969 C 13.085938 5.792969 11.90625 6.972656 11.90625 8.4375 L 11.90625 53.421875 C 11.90625 54.886719 13.085938 56.066406 14.554688 56.066406 L 47.628906 56.066406 C 49.09375 56.066406 50.277344 54.886719 50.277344 53.421875 L 50.277344 17.699219 L 38.367188 5.792969 Z M 41.015625 5.792969 L 50.277344 15.054688 L 50.277344 8.4375 C 50.277344 6.972656 49.09375 5.792969 47.628906 5.792969 Z M 41.015625 5.792969 "/>
<path style=" stroke:none;fill-rule:nonzero;fill:rgb(0%,0%,0%);fill-opacity:0.235294;" d="M 21.167969 15.054688 C 19.703125 15.054688 18.523438 16.234375 18.523438 17.699219 L 18.523438 44.160156 C 18.523438 45.625 19.703125 46.804688 21.167969 46.804688 L 41.015625 46.804688 C 42.480469 46.804688 43.660156 45.625 43.660156 44.160156 L 43.660156 17.699219 C 43.660156 16.234375 42.480469 15.054688 41.015625 15.054688 Z M 21.832031 17.039062 L 24.476562 17.039062 L 24.476562 20.34375 L 20.507812 20.34375 L 20.507812 18.359375 C 20.507812 17.628906 21.097656 17.039062 21.832031 17.039062 Z M 26.460938 17.039062 L 30.097656 17.039062 L 30.097656 20.34375 L 26.460938 20.34375 Z M 32.082031 17.039062 L 35.722656 17.039062 L 35.722656 20.34375 L 32.082031 20.34375 Z M 37.707031 17.039062 L 40.351562 17.039062 C 41.085938 17.039062 41.675781 17.628906 41.675781 18.359375 L 41.675781 20.34375 L 37.707031 20.34375 Z M 20.507812 22.332031 L 24.476562 22.332031 L 24.476562 24.976562 L 20.507812 24.976562 Z M 26.460938 22.332031 L 30.097656 22.332031 L 30.097656 24.976562 L 26.460938 24.976562 Z M 32.082031 22.332031 L 35.722656 22.332031 L 35.722656 24.976562 L 32.082031 24.976562 Z M 37.707031 22.332031 L 41.675781 22.332031 L 41.675781 24.976562 L 37.707031 24.976562 Z M 20.507812 26.960938 L 24.476562 26.960938 L 24.476562 29.9375 L 20.507812 29.9375 Z M 26.460938 26.960938 L 30.097656 26.960938 L 30.097656 29.9375 L 26.460938 29.9375 Z M 32.082031 26.960938 L 35.722656 26.960938 L 35.722656 29.9375 L 32.082031 29.9375 Z M 37.707031 26.960938 L 41.675781 26.960938 L 41.675781 29.9375 L 37.707031 29.9375 Z M 20.507812 31.921875 L 24.476562 31.921875 L 24.476562 34.570312 L 20.507812 34.570312 Z M 26.460938 31.921875 L 30.097656 31.921875 L 30.097656 34.570312 L 26.460938 34.570312 Z M 32.082031 31.921875 L 35.722656 31.921875 L 35.722656 34.570312 L 32.082031 34.570312 Z M 37.707031 31.921875 L 41.675781 31.921875 L 41.675781 34.570312 L 37.707031 34.570312 Z M 20.507812 36.554688 L 24.476562 36.554688 L 24.476562 39.53125 L 20.507812 39.53125 Z M 26.460938 36.554688 L 30.097656 36.554688 L 30.097656 39.53125 L 26.460938 39.53125 Z M 32.082031 36.554688 L 35.722656 36.554688 L 35.722656 39.53125 L 32.082031 39.53125 Z M 37.707031 36.554688 L 41.675781 36.554688 L 41.675781 39.53125 L 37.707031 39.53125 Z M 20.507812 41.515625 L 24.476562 41.515625 L 24.476562 44.820312 L 21.832031 44.820312 C 21.097656 44.820312 20.507812 44.230469 20.507812 43.5 Z M 26.460938 41.515625 L 30.097656 41.515625 L 30.097656 44.820312 L 26.460938 44.820312 Z M 32.082031 41.515625 L 35.722656 41.515625 L 35.722656 44.820312 L 32.082031 44.820312 Z M 37.707031 41.515625 L 41.675781 41.515625 L 41.675781 43.5 C 41.675781 44.230469 41.085938 44.820312 40.351562 44.820312 L 37.707031 44.820312 Z M 37.707031 41.515625 "/>
<path style=" stroke:none;fill-rule:nonzero;fill:url(#linear2);" d="M 41.015625 5.792969 L 50.277344 15.054688 L 50.277344 8.4375 C 50.277344 6.972656 49.09375 5.792969 47.628906 5.792969 Z M 41.015625 5.792969 "/>
<path style=" stroke:none;fill-rule:nonzero;fill:rgb(100%,100%,100%);fill-opacity:0.392157;" d="M 14.554688 5.792969 C 13.085938 5.792969 11.90625 6.972656 11.90625 8.4375 L 11.90625 9.101562 C 11.90625 7.632812 13.085938 6.453125 14.554688 6.453125 L 38.367188 6.453125 L 50.277344 18.359375 L 50.277344 17.699219 L 38.367188 5.792969 Z M 41.015625 5.792969 L 41.675781 6.453125 L 47.628906 6.453125 C 49.09375 6.453125 50.277344 7.632812 50.277344 9.101562 L 50.277344 8.4375 C 50.277344 6.972656 49.09375 5.792969 47.628906 5.792969 Z M 41.015625 5.792969 "/>
<path style=" stroke:none;fill-rule:nonzero;fill:rgb(0%,0%,0%);fill-opacity:0.235294;" d="M 41.015625 5.792969 L 50.277344 15.054688 L 50.277344 14.070312 L 41.996094 5.792969 Z M 11.90625 52.441406 L 11.90625 53.421875 C 11.90625 54.886719 13.085938 56.066406 14.554688 56.066406 L 47.628906 56.066406 C 49.09375 56.066406 50.277344 54.886719 50.277344 53.421875 L 50.277344 52.441406 C 50.277344 53.90625 49.09375 55.085938 47.628906 55.085938 L 14.554688 55.085938 C 13.085938 55.085938 11.90625 53.90625 11.90625 52.441406 Z M 11.90625 52.441406 "/>
<path style=" stroke:none;fill-rule:nonzero;fill:rgb(12.941177%,12.941177%,12.941177%);fill-opacity:1;" d="M 14.554688 5.605469 C 12.988281 5.605469 11.71875 6.871094 11.71875 8.4375 L 11.71875 53.421875 C 11.71875 54.988281 12.988281 56.253906 14.554688 56.253906 L 47.628906 56.253906 C 49.195312 56.253906 50.464844 54.988281 50.464844 53.421875 L 50.464844 17.699219 C 50.464844 17.648438 50.445312 17.601562 50.410156 17.566406 L 38.5 5.660156 C 38.464844 5.625 38.417969 5.605469 38.367188 5.605469 Z M 41.015625 5.605469 C 40.9375 5.605469 40.871094 5.648438 40.839844 5.71875 C 40.8125 5.789062 40.828125 5.871094 40.882812 5.925781 L 50.144531 15.1875 C 50.195312 15.238281 50.277344 15.253906 50.347656 15.226562 C 50.417969 15.199219 50.464844 15.128906 50.464844 15.054688 L 50.464844 8.4375 C 50.464844 6.871094 49.195312 5.605469 47.628906 5.605469 Z M 14.554688 5.980469 L 38.289062 5.980469 L 50.089844 17.777344 L 50.089844 53.421875 C 50.089844 54.785156 48.996094 55.878906 47.628906 55.878906 L 14.554688 55.878906 C 13.1875 55.878906 12.09375 54.785156 12.09375 53.421875 L 12.09375 8.4375 C 12.09375 7.074219 13.1875 5.980469 14.554688 5.980469 Z M 41.46875 5.980469 L 47.628906 5.980469 C 48.996094 5.980469 50.089844 7.074219 50.089844 8.4375 L 50.089844 14.601562 Z M 41.46875 5.980469 "/>
<path style=" stroke:none;fill-rule:nonzero;fill:url(#linear3);" d="M 41.675781 36.222656 C 36.179688 36.222656 31.753906 40.648438 31.753906 46.144531 C 31.753906 51.640625 36.179688 56.066406 41.675781 56.066406 C 47.171875 56.066406 51.597656 51.640625 51.597656 46.144531 L 41.675781 46.144531 Z M 41.675781 36.222656 "/>
<path style=" stroke:none;fill-rule:nonzero;fill:url(#linear4);" d="M 44.320312 33.574219 L 44.320312 43.5 L 54.246094 43.5 C 54.246094 38 49.820312 33.574219 44.320312 33.574219 Z M 44.320312 33.574219 "/>
<path style=" stroke:none;fill-rule:nonzero;fill:rgb(100%,100%,100%);fill-opacity:0.392157;" d="M 41.675781 36.222656 C 36.179688 36.222656 31.753906 40.648438 31.753906 46.144531 C 31.753906 46.253906 31.753906 46.363281 31.757812 46.472656 C 31.933594 41.132812 36.289062 36.882812 41.675781 36.882812 Z M 41.675781 46.144531 L 41.675781 46.804688 L 51.578125 46.804688 C 51.589844 46.585938 51.597656 46.367188 51.597656 46.144531 Z M 41.675781 46.144531 "/>
<path style=" stroke:none;fill-rule:nonzero;fill:rgb(100%,100%,100%);fill-opacity:0.392157;" d="M 44.320312 33.574219 L 44.320312 34.238281 C 49.597656 34.238281 53.882812 38.3125 54.222656 43.5 L 54.246094 43.5 C 54.246094 38 49.820312 33.574219 44.320312 33.574219 Z M 44.320312 33.574219 "/>
<path style=" stroke:none;fill-rule:nonzero;fill:rgb(0%,0%,0%);fill-opacity:0.235294;" d="M 31.757812 45.835938 C 31.753906 45.9375 31.753906 46.042969 31.753906 46.144531 C 31.753906 51.640625 36.179688 56.066406 41.675781 56.066406 C 47.171875 56.066406 51.597656 51.640625 51.597656 46.144531 L 51.578125 46.144531 C 51.257812 51.347656 46.964844 55.441406 41.675781 55.441406 C 36.285156 55.441406 31.921875 51.183594 31.757812 45.835938 Z M 31.757812 45.835938 "/>
<path style=" stroke:none;fill-rule:nonzero;fill:rgb(0%,0%,0%);fill-opacity:0.235294;" d="M 44.320312 42.835938 L 44.320312 43.5 L 54.246094 43.5 C 54.246094 43.277344 54.238281 43.054688 54.222656 42.835938 Z M 44.320312 42.835938 "/>
<path style="fill:none;stroke-width:3;stroke-linecap:round;stroke-linejoin:round;stroke:rgb(12.941177%,12.941177%,12.941177%);stroke-opacity:1;stroke-miterlimit:4;" d="M 333.374414 74.75358 C 289.409863 74.75358 254.006994 110.156449 254.006994 154.121001 C 254.006994 198.085552 289.409863 233.488421 333.374414 233.488421 C 377.338966 233.488421 412.741835 198.085552 412.741835 154.121001 L 333.374414 154.121001 Z M 333.374414 74.75358 " transform="matrix(0.125012,0,0,0.125012,0,26.877566)"/>
<path style="fill:none;stroke-width:3;stroke-linecap:round;stroke-linejoin:round;stroke:rgb(12.941177%,12.941177%,12.941177%);stroke-opacity:1;stroke-miterlimit:4;" d="M 354.528644 53.568103 L 354.528644 132.966771 L 433.927312 132.966771 C 433.927312 88.970972 398.524443 53.568103 354.528644 53.568103 Z M 354.528644 53.568103 " transform="matrix(0.125012,0,0,0.125012,0,26.877566)"/>
</g>
</svg>
